X:1
T:The Gathering
T:The Gathering
T:Nathaniel Gow
C:Nathaniel Gow
L:1/8
M:4/4
K:C
V:1 treble 
V:1
"^Prelude" A3 B/c/ e4 | g3 d/B/ G4 | A3 B/d/ e4 | a3 g/f/{f} e2 d2 | A3 B/d/ e4 | g3 d/B/ G4 | %6
 A3 B/d/ e4 | a3 g/f/{f} e2 d2 ||"^I" eAAB eABA | fAAB eABG | eAAB eABA | BAAB eABA | aAAB eABA | %13
 fAAB eABG | AAAB eABA | a3 g/f/{f} e2 d2 :|"^II" (3ABA | d2 (3ABA f2 (3ABA | e2 (3ABA G2 (3ABA | %19
 d2 (3ABA f2 (3ABA | c2 (3ABA a2 (3ABA | d2 (3ABA f2 (3ABA | e2 (3ABA G2 (3ABA | %23
 d2 (3ABA c2 (3ABA |1 B>c A4 :|2 B>c A6 ||"^III" (3ABA (eA) BAfA | (3ABA dA eABG | (3ABA eA BAfA | %29
 (3ABA fA aABA | (3ABA (aA) (fA)(eA) | (3ABA dA eABG | (3ABA d>e c>eTB>c | A8 :| %34
"^Parting" (a/f/e/d/) c>c c4 | (a/f/e/c/) B>B B4 | a/f/e/d/ c>c c4 | a/f/e/d/ A>A A4 |] %38

